X:1
T: Miss Stirling's Reel
C:R. Mackintosh
R:Reel
Q: 232
K:D
M:4/4
L:1/8
|:f|de fd eB Be|de fd ge fd|gb fa eB Be|d1/2c1/2B1/2c1/2 dA FD Df|
de fd eB Be|de fd ge fd|gb fa eB Be|d1/2c1/2B1/2c1/2 dA FD DB|
AD FD EB, B,B|AD FD dD FD|GB FA EB, B,B|AG FE D1/2D1/2D DB|
AD FD EB, B,B|AD FD dD FD|GB FA EF GB|Aa ef d1/2d1/2d d:|
